images/placeholder-1by1.svg

<svg xmlns="http://www.w3.org/2000/svg" width="800" height="800" viewBox="0 0 800 800"><title>placeholder</title><path fill="#e2e2e2" d="M2 2h796v796h-796z"/><path d="M796 4v792h-792v-792h792m4-4h-800v800h800v-800z" fill="#666"/><path stroke="#666" stroke-miterlimit="10" stroke-width="4" fill="none" d="M0 0l800 800M800 0l-800 800"/></svg>

<svg xmlns="http://www.w3.org/2000/svg" width="800" height="800" viewBox="0 0 800 800"><title>placeholder</title><rect x="2" y="2" width="796" height="796" fill="#e2e2e2"/><path d="M796,4V796H4V4H796m4-4H0V800H800V0h0Z" fill="#666"/><line x2="800" y2="800" fill="none" stroke="#666" stroke-miterlimit="10" stroke-width="4"/><line x1="800" y2="800" fill="none" stroke="#666" stroke-miterlimit="10" stroke-width="4"/></svg>
